SF_Symbols/sun.haze.fill.svg

<?xml version="1.0" encoding="UTF-8"?>
<svg xmlns="http://www.w3.org/2000/svg" xmlns:xlink="http://www.w3.org/1999/xlink" width="24" height="24" viewBox="0 0 24 24" version="1.1">
<g id="surface1">
<path style=" stroke:none;fill-rule:nonzero;fill:rgb(100%,100%,100%);fill-opacity:1;" d="M 17.082031 11.953125 C 17.082031 11.265625 16.945312 10.617188 16.679688 10.003906 C 16.414062 9.382812 16.050781 8.839844 15.582031 8.371094 C 15.113281 7.902344 14.570312 7.539062 13.960938 7.273438 C 13.347656 7.007812 12.695312 6.871094 12 6.871094 C 11.304688 6.871094 10.652344 7.007812 10.039062 7.273438 C 9.429688 7.539062 8.886719 7.902344 8.417969 8.371094 C 7.949219 8.839844 7.582031 9.382812 7.3125 10.003906 C 7.050781 10.617188 6.917969 11.265625 6.917969 11.953125 C 6.917969 12.289062 6.953125 12.617188 7.023438 12.9375 C 7.097656 13.257812 7.195312 13.558594 7.3125 13.847656 L 16.679688 13.847656 C 16.804688 13.558594 16.898438 13.257812 16.96875 12.9375 C 17.042969 12.617188 17.082031 12.289062 17.082031 11.953125 Z M 2.015625 12.488281 L 4.320312 12.488281 C 4.566406 12.488281 4.769531 12.414062 4.929688 12.273438 C 5.09375 12.121094 5.171875 11.941406 5.164062 11.726562 C 5.160156 11.523438 5.078125 11.34375 4.921875 11.195312 C 4.765625 11.042969 4.566406 10.96875 4.320312 10.96875 L 2.015625 10.96875 C 1.773438 10.96875 1.570312 11.042969 1.414062 11.195312 C 1.257812 11.34375 1.179688 11.523438 1.179688 11.726562 C 1.179688 11.941406 1.257812 12.121094 1.414062 12.273438 C 1.570312 12.414062 1.773438 12.488281 2.015625 12.488281 Z M 7.164062 7.132812 C 7.304688 6.984375 7.375 6.800781 7.367188 6.582031 C 7.367188 6.363281 7.28125 6.167969 7.105469 6 L 5.476562 4.367188 C 5.300781 4.195312 5.105469 4.105469 4.894531 4.105469 C 4.679688 4.105469 4.5 4.179688 4.351562 4.320312 C 4.199219 4.464844 4.125 4.648438 4.125 4.867188 C 4.132812 5.085938 4.222656 5.277344 4.398438 5.445312 L 6.027344 7.078125 C 6.203125 7.253906 6.398438 7.34375 6.617188 7.351562 C 6.835938 7.355469 7.019531 7.285156 7.164062 7.132812 Z M 12 5.136719 C 12.207031 5.132812 12.382812 5.050781 12.535156 4.894531 C 12.683594 4.738281 12.757812 4.539062 12.757812 4.292969 L 12.757812 1.988281 C 12.757812 1.742188 12.683594 1.542969 12.535156 1.386719 C 12.382812 1.230469 12.207031 1.152344 12 1.152344 C 11.789062 1.152344 11.605469 1.230469 11.457031 1.386719 C 11.3125 1.542969 11.242188 1.742188 11.242188 1.988281 L 11.242188 4.292969 C 11.242188 4.539062 11.3125 4.742188 11.457031 4.902344 C 11.605469 5.066406 11.789062 5.144531 12 5.136719 Z M 16.835938 7.132812 C 16.980469 7.277344 17.164062 7.351562 17.382812 7.351562 C 17.601562 7.34375 17.796875 7.253906 17.972656 7.078125 L 19.601562 5.445312 C 19.777344 5.277344 19.867188 5.085938 19.867188 4.875 C 19.867188 4.65625 19.789062 4.472656 19.640625 4.320312 C 19.503906 4.171875 19.324219 4.101562 19.105469 4.105469 C 18.886719 4.105469 18.691406 4.195312 18.515625 4.367188 L 16.882812 6 C 16.714844 6.167969 16.628906 6.367188 16.621094 6.589844 C 16.617188 6.808594 16.6875 6.992188 16.835938 7.132812 Z M 19.679688 12.488281 L 21.984375 12.488281 C 22.226562 12.492188 22.429688 12.421875 22.585938 12.273438 C 22.742188 12.121094 22.820312 11.941406 22.820312 11.726562 C 22.820312 11.523438 22.742188 11.34375 22.585938 11.195312 C 22.429688 11.042969 22.226562 10.96875 21.984375 10.96875 L 19.679688 10.96875 C 19.433594 10.96875 19.230469 11.042969 19.070312 11.195312 C 18.90625 11.34375 18.828125 11.523438 18.835938 11.726562 C 18.835938 11.941406 18.914062 12.121094 19.070312 12.273438 C 19.230469 12.414062 19.433594 12.488281 19.679688 12.488281 Z M 3.1875 16.125 L 22.226562 16.125 C 22.390625 16.125 22.527344 16.070312 22.640625 15.957031 C 22.757812 15.84375 22.820312 15.703125 22.820312 15.535156 C 22.820312 15.367188 22.757812 15.226562 22.640625 15.113281 C 22.527344 15 22.390625 14.945312 22.226562 14.945312 L 3.1875 14.945312 C 3.019531 14.945312 2.878906 15 2.765625 15.113281 C 2.652344 15.226562 2.597656 15.367188 2.597656 15.535156 C 2.597656 15.703125 2.652344 15.84375 2.765625 15.957031 C 2.878906 16.070312 3.019531 16.125 3.1875 16.125 Z M 1.773438 19.734375 L 20.8125 19.734375 C 20.980469 19.734375 21.121094 19.675781 21.234375 19.554688 C 21.347656 19.445312 21.402344 19.304688 21.402344 19.132812 C 21.402344 18.964844 21.347656 18.824219 21.234375 18.710938 C 21.121094 18.601562 20.980469 18.542969 20.8125 18.542969 L 1.773438 18.542969 C 1.609375 18.542969 1.46875 18.601562 1.351562 18.710938 C 1.238281 18.824219 1.179688 18.964844 1.179688 19.132812 C 1.179688 19.304688 1.238281 19.445312 1.351562 19.554688 C 1.46875 19.675781 1.609375 19.734375 1.773438 19.734375 Z M 3.1875 23.335938 L 22.226562 23.335938 C 22.390625 23.335938 22.527344 23.277344 22.640625 23.164062 C 22.757812 23.054688 22.820312 22.914062 22.820312 22.742188 C 22.820312 22.570312 22.757812 22.425781 22.640625 22.3125 C 22.527344 22.199219 22.390625 22.144531 22.226562 22.144531 L 3.1875 22.144531 C 3.019531 22.144531 2.878906 22.199219 2.765625 22.3125 C 2.652344 22.425781 2.597656 22.570312 2.597656 22.742188 C 2.597656 22.914062 2.652344 23.054688 2.765625 23.164062 C 2.878906 23.277344 3.019531 23.335938 3.1875 23.335938 Z M 3.1875 23.335938 "/>
</g>
</svg>

<svg xmlns="http://www.w3.org/2000/svg" width="24" height="24"><path style="stroke:none;fill-rule:nonzero;fill:#fff;fill-opacity:1" d="M17.082 11.953a4.774 4.774 0 0 0-.402-1.95 5.137 5.137 0 0 0-2.72-2.73A4.842 4.842 0 0 0 12 6.871c-.695 0-1.348.137-1.96.402a5.218 5.218 0 0 0-1.622 1.098 5.225 5.225 0 0 0-1.105 1.633 4.906 4.906 0 0 0-.29 2.934c.075.32.172.62.29.91h9.367c.125-.29.218-.59.289-.91.074-.32.113-.649.113-.985Zm-15.066.535H4.32c.246 0 .45-.074.61-.215a.695.695 0 0 0 .234-.546.73.73 0 0 0-.242-.532.833.833 0 0 0-.602-.226H2.016a.833.833 0 0 0-.602.226.722.722 0 0 0-.234.532c0 .214.078.394.234.546.156.141.36.215.602.215Zm5.148-5.355a.74.74 0 0 0 .203-.551A.788.788 0 0 0 7.105 6L5.477 4.367c-.176-.172-.372-.262-.582-.262a.758.758 0 0 0-.543.215.72.72 0 0 0-.227.547c.008.219.098.41.273.578l1.63 1.633a.871.871 0 0 0 .59.274.7.7 0 0 0 .546-.22ZM12 5.137a.738.738 0 0 0 .535-.242.836.836 0 0 0 .223-.602V1.988a.836.836 0 0 0-.223-.601.73.73 0 0 0-.535-.235.719.719 0 0 0-.543.235c-.145.156-.215.355-.215.601v2.305c0 .246.07.45.215.61.137.16.336.245.543.234Zm4.836 1.996a.755.755 0 0 0 .547.219.863.863 0 0 0 .59-.274l1.629-1.633c.175-.168.265-.36.265-.57a.758.758 0 0 0-.226-.555.672.672 0 0 0-.536-.215c-.218 0-.414.09-.59.262L16.884 6a.866.866 0 0 0-.262.59.707.707 0 0 0 .215.543Zm2.844 5.355h2.304a.83.83 0 0 0 .602-.215.727.727 0 0 0 .234-.546.722.722 0 0 0-.234-.532.833.833 0 0 0-.602-.226H19.68a.852.852 0 0 0-.61.226.663.663 0 0 0-.234.532c0 .214.078.394.234.546.16.141.364.215.61.215ZM3.188 16.125h19.039a.566.566 0 0 0 .414-.168.558.558 0 0 0 .18-.422.558.558 0 0 0-.18-.422.566.566 0 0 0-.414-.168H3.187a.562.562 0 0 0-.421.168.548.548 0 0 0-.168.422.554.554 0 0 0 .168.422c.109.113.261.172.421.168Zm-1.415 3.61h19.04a.558.558 0 0 0 .421-.18.562.562 0 0 0 .168-.422.568.568 0 0 0-.168-.422.568.568 0 0 0-.422-.168H1.773a.607.607 0 0 0-.421.168.572.572 0 0 0-.172.422c0 .172.058.312.172.422.117.12.257.18.421.18Zm1.415 3.6h19.039c.164 0 .3-.058.414-.17.117-.11.18-.25.18-.423a.57.57 0 0 0-.18-.43.566.566 0 0 0-.414-.167H3.187a.567.567 0 0 0-.59.598.554.554 0 0 0 .169.421c.109.113.261.176.421.172Zm0 0"/></svg>
